packages/core/src/svgs/tokens/mono/GHX.svg

<svg width="24" height="24" viewBox="0 0 24 24" fill="none" xmlns="http://www.w3.org/2000/svg">
<path fill-rule="evenodd" clip-rule="evenodd" d="M10.3926 2.87256C10.3701 2.66948 10.4276 2.46565 10.5528 2.30424C10.6781 2.14282 10.8613 2.0365 11.0635 2.0078C11.2658 1.97909 11.4713 2.03027 11.6365 2.15048C11.8017 2.27067 11.9136 2.45047 11.9485 2.65177L12.0771 3.55916C14.007 3.51456 15.8933 4.13649 17.4182 5.32017C17.621 5.47772 17.6653 5.76333 17.5315 5.98358L16.9287 6.97686L16.9213 6.97054L15.7862 8.81904L15.7883 8.82167L15.4838 9.31541C15.4622 9.33701 15.4374 9.36442 15.41 9.39813C15.0211 9.88077 14.6144 9.79703 14.3815 9.6458C13.8749 9.18692 13.2335 8.90453 12.553 8.84091C11.8725 8.77728 11.1898 8.93588 10.607 9.29291C10.0242 9.64998 9.57286 10.1862 9.32049 10.8213C9.06813 11.4564 9.02836 12.1562 9.20714 12.8159C9.38592 13.4755 9.77364 14.0594 10.3122 14.4801C10.8508 14.901 11.5112 15.1358 12.1944 15.1497C12.8777 15.1636 13.5471 14.9557 14.1023 14.5572C14.6575 14.1586 15.0687 13.591 15.2741 12.9392C15.2926 12.9155 15.3125 12.8855 15.3341 12.8496C15.635 12.3484 16.0207 12.3442 16.2747 12.4449L16.4275 12.5266L16.4502 12.5429V12.5387L16.9207 12.7896L19.8964 14.3598C20.123 14.4794 20.232 14.7444 20.1414 14.9831C19.446 16.8058 18.1422 18.3322 16.4508 19.304L16.5893 20.2894C16.6184 20.4958 16.5643 20.7053 16.439 20.872C16.3138 21.0386 16.1275 21.1488 15.9211 21.1783C15.819 21.1929 15.715 21.1872 15.6151 21.1615C15.5152 21.1358 15.4213 21.0907 15.3389 21.0287C15.2564 20.9666 15.1871 20.889 15.1347 20.8001C15.0823 20.7112 15.048 20.6129 15.0338 20.5107L14.9584 19.9774C14.3771 20.1737 13.776 20.3055 13.1657 20.3705L13.3149 21.0413C13.36 21.245 13.3226 21.4583 13.2107 21.6343C13.099 21.8104 12.9219 21.9351 12.7184 21.9808C12.2948 22.0757 11.8754 21.8091 11.7811 21.3854L11.5602 20.3906C7.23091 20.036 3.8269 16.4095 3.8269 11.988C3.8269 9.07143 5.30759 6.50104 7.55814 4.98715C7.55211 4.96751 7.54684 4.94765 7.54232 4.92761L7.29203 3.79943C7.2468 3.59569 7.28425 3.38232 7.39618 3.20616C7.50812 3.03001 7.68538 2.90549 7.88905 2.85991C8.31219 2.76506 8.73215 3.0317 8.82594 3.45535L8.99404 4.21203C9.47934 4.00811 9.98843 3.84844 10.5153 3.73778L10.3926 2.87256ZM15.6292 6.02363L14.5542 7.83735C13.738 7.38591 12.8066 7.18526 11.8767 7.2605C10.947 7.33575 10.06 7.68355 9.3268 8.26038C8.59366 8.83721 8.04693 9.6174 7.75502 10.5035C7.46311 11.3895 7.43897 12.3419 7.68566 13.2415C7.93234 14.1412 8.43888 14.9481 9.14187 15.5614C9.84482 16.1745 10.7131 16.5668 11.6379 16.689C12.5628 16.8112 13.503 16.658 14.3412 16.2484C15.1793 15.839 15.8782 15.1913 16.3501 14.3867L18.1854 15.4242C17.5834 16.463 16.7188 17.3251 15.6785 17.9244C14.6381 18.5235 13.4585 18.8388 12.2579 18.8382C8.47448 18.8382 5.40771 15.7714 5.40771 11.988C5.40771 8.20462 8.47448 5.13786 12.2579 5.13786C13.4836 5.13786 14.6344 5.45928 15.6292 6.02363Z" fill="white"/>
</svg>

<svg xmlns="http://www.w3.org/2000/svg" width="24" height="24" fill="none" viewBox="0 0 24 24">
    <path fill="#fff" fill-rule="evenodd" d="M10.393 2.873a.786.786 0 0 1 1.555-.221l.13.907a8.4 8.4 0 0 1 5.34 1.761.505.505 0 0 1 .114.664l-.603.993-.008-.006-1.135 1.848.002.003-.304.493a1 1 0 0 0-.074.083c-.389.483-.796.399-1.028.248a3.162 3.162 0 1 0 .892 3.293 1 1 0 0 0 .06-.09c.301-.5.687-.505.94-.404l.153.082.023.016v-.004l.47.25 2.976 1.57c.227.12.336.385.245.624a8.46 8.46 0 0 1-3.69 4.321l.138.985a.787.787 0 0 1-1.555.222l-.076-.534a8.4 8.4 0 0 1-1.792.393l.149.671a.79.79 0 0 1-.597.94.784.784 0 0 1-.937-.596l-.22-.994A8.432 8.432 0 0 1 7.557 4.987l-.016-.06-.25-1.128a.79.79 0 0 1 .597-.94.784.784 0 0 1 .937.596l.168.757a8.4 8.4 0 0 1 1.521-.474zm5.236 3.15-1.075 1.814a4.742 4.742 0 1 0 1.796 6.55l1.835 1.037a6.85 6.85 0 0 1-5.927 3.414 6.85 6.85 0 1 1 3.371-12.814" clip-rule="evenodd"/>
</svg>
